X:1
T:Highland Mary
M:4/4
C:
S:Bordering on the Absurd
N:Hunt the Dragon
A:Border
O:English
R:Reel
%P:
K:G
P:A
|:\
    D2 | G2 AG FE D2 | G2 AB c2 Bc | d2 de dcBA  | GA BG D3 \
     F | G2 AG FE D2 | G2 AB c2 Bc | d2 de dcBA  | G2 F2 G2 :|\
P:B
|:  z2 | GABc  d2 d2 | ed cB c2 Bc | d2 de dc BA | GABG  D3 \
     F | G2 AG FE D2 | G2 AB c2 Bc | d2 de dcBA  | G2 F2 G2 :|
